X:1
T:When in Thy Courts I Stand
T:When in Thy Courts I Stand
T:Joseph Lincoln Hall
T:Effie S. Black, 1905
T:Public Domain Courtesy of the Cyber Hymnal™
T:Public Domain Courtesy of the Cyber Hymnal™
C:Joseph Lincoln Hall
Z:Public Domain
Z:Courtesy of the Cyber Hymnal™
%%score ( 1 2 ) 3
L:1/8
Q:1/4=95
M:3/4
K:F
V:1 treble 
V:2 treble 
V:3 bass 
V:1
 [FA]2 | [FA][Fc] [FA]2 [CF]2 | D[CE] [CF]2 [FA]2 | [Ec][EG] [EG]2 [EB]2 | [FA][F^G] [FA]2 [FA]2 | %5
w: 1.~Both|weak and blind, dear|Lord, I am, For|now Thy face I|can- not see; But|
w: 2.~But|I can feel Thy|gen- tle touch, And|I can read Thy|bless- èd word, And|
w: 3.~Till|then, dear Lord, but|lead me on, And|guide me in the|bet- ter way, Lest,|
w: 4.~And|when at last my|jour- ney’s o’er, Earth’s|hea- vy bur- dens|are laid down, When|
 [Fc][FA] [^Fd]2 [Fc]2 | [GB][^FA] [GB]2 [=Fd]2 |[M:4/4] [Fc]3 [FA] [CF]2 [CG]2 | [CF]6 || %9
w: I can hear Thy|gen- tle voice Speak|words of love to|me.|
w: with Thy might- y,|throb- bing love My|lone- ly heart is|stirred.|
w: grop- ing in the|dark- ness here, My|feet should go a-|stray.|
w: tears are changed to|pearls of joy, My|cross to jew- eled|crown.|
"^Refrain" [Fc]2 | [Fd]2 [Fc]4 [FA][CF] | [CE]6 [Ec]2 | [Ed]2 [Ec]4 [DB][EB] | [FA]6 [Fc]2 | %14
w: |||||
w: O|some day I shall|see, And|some day clasp Thy|hand; Yes,|
w: |||||
w: |||||
 [Fd]2 [Fc]4 [_EA][Ec] | [DB]6 [Fd]2 | [Fc]3 [FA] [CF]2 [CG]2 | [CF]6 |] %18
w: ||||
w: some day see Thy|face, When|in Thy courts I|stand.|
w: ||||
w: ||||
V:2
 x2 | x6 | D x5 | x6 | x6 | x6 | x6 |[M:4/4] x8 | x6 || x2 | x8 | x8 | x8 | x8 | x8 | x8 | x8 | %17
 x6 |] %18
V:3
 [F,C]2 | [F,C][F,A,] [F,C]2 [F,A,]2 | [B,,B,][C,B,] [F,A,]2 [F,A,]2 | [C,G,][C,C] [C,C]2 [C,C]2 | %4
w: ~|~ ~ ~ ~|~ ~ ~ ~|~ ~ ~ ~|
 [F,C][F,=B,] [F,C]2 [F,C]2 | [F,A,][F,A,] [D,A,]2 [D,D]2 | [G,D][D,D] [G,D]2 [^G,=B,]2 | %7
w: ~ ~ ~ ~|~ ~ ~ ~|~ ~ ~ ~|
[M:4/4] [A,C]3 [F,C] [C,A,]2 [C,B,]2 | [F,A,]6 || [F,A,]2 | %10
w: ~ ~ ~ ~|~|O|
 [F,A,]2 [F,A,]2 [C,A,][C,A,][F,A,][F,A,] | [G,B,]2 [G,B,][G,B,] [G,B,]2 [G,B,]2 | %12
w: some day, some day I shall|see, I shall see, And|
 [G,B,]2 [G,B,]2 [C,B,][C,B,][C,G,][C,C] | [F,C]2 [F,C][F,C] [F,C]2 [F,A,]2 | %14
w: some day, some day Clasp Thy|hand, clasp Thy hand, Yes,|
 [F,A,]2 [C,A,]2 [C,A,][C,A,][F,C][F,A,] | [B,,B,]2 [B,,B,][B,,B,] [B,,B,]2 [=B,,^G,]2 | %16
w: some day, some day See Thy|face, see Thy face, *|
 [C,A,]3 [C,C] [C,A,]2 [C,B,]2 | [F,A,]6 |] %18
w: ||

